styles/2/Numix/32/places/pink-user-home.svg

<?xml version="1.0" encoding="UTF-8" standalone="no"?>
<svg
   xmlns:dc="http://purl.org/dc/elements/1.1/"
   xmlns:cc="http://creativecommons.org/ns#"
   xmlns:rdf="http://www.w3.org/1999/02/22-rdf-syntax-ns#"
   xmlns:svg="http://www.w3.org/2000/svg"
   xmlns="http://www.w3.org/2000/svg"
   xmlns:sodipodi="http://sodipodi.sourceforge.net/DTD/sodipodi-0.dtd"
   xmlns:inkscape="http://www.inkscape.org/namespaces/inkscape"
   width="32"
   height="32"
   viewBox="0 0 32 32"
   id="svg2997"
   version="1.1"
   inkscape:version="0.91 r"
   sodipodi:docname="pink-user-home.svg">
  <metadata
     id="metadata3011">
    <rdf:RDF>
      <cc:Work
         rdf:about="">
        <dc:format>image/svg+xml</dc:format>
        <dc:type
           rdf:resource="http://purl.org/dc/dcmitype/StillImage" />
      </cc:Work>
    </rdf:RDF>
  </metadata>
  <defs
     id="defs3009" />
  <sodipodi:namedview
     pagecolor="#ffffff"
     bordercolor="#666666"
     borderopacity="1"
     objecttolerance="10"
     gridtolerance="10"
     guidetolerance="10"
     inkscape:pageopacity="0"
     inkscape:pageshadow="2"
     inkscape:window-width="1280"
     inkscape:window-height="998"
     id="namedview3007"
     showgrid="true"
     inkscape:zoom="20.85965"
     inkscape:cx="6.7834691"
     inkscape:cy="13.875413"
     inkscape:window-x="0"
     inkscape:window-y="0"
     inkscape:window-maximized="1"
     inkscape:current-layer="svg2997">
    <inkscape:grid
       type="xygrid"
       id="grid2997" />
  </sodipodi:namedview>
  <path
     style="font-size:medium;font-style:normal;font-variant:normal;font-weight:normal;font-stretch:normal;text-indent:0;text-align:start;text-decoration:none;line-height:normal;letter-spacing:normal;word-spacing:normal;text-transform:none;direction:ltr;block-progression:tb;writing-mode:lr-tb;text-anchor:start;baseline-shift:baseline;color:#000000;fill:#f06292;fill-opacity:1;fill-rule:nonzero;stroke:none;stroke-width:1;marker:none;visibility:visible;display:inline;overflow:visible;enable-background:accumulate;font-family:Sans;-inkscape-font-specification:Sans"
     d="m 4,4.0000001 c -0.4916,0 -1,0.4731187 -1,1 l 0,1 c -0.666666,0 -0.833333,0 -1.5,0 -0.979161,0 -1.5,0.4940342 -1.5,1.5 L 0,26.5 C 0,27.531461 0.523069,28 1.5,28 l 28.84375,0 C 31.21572,28 32,27.376781 32,26.5 L 32,9.5000001 c 0,-0.9413229 -0.425107,-1.5 -1.5,-1.5 l -2.5,0 0,-3 c 0,-0.5268813 -0.5084,-1 -1,-1 z"
     id="path3004"
     inkscape:connector-curvature="0"
     sodipodi:nodetypes="ssccssssscccsss" />
  <path
     style="font-size:medium;font-style:normal;font-variant:normal;font-weight:normal;font-stretch:normal;text-indent:0;text-align:start;text-decoration:none;line-height:normal;letter-spacing:normal;word-spacing:normal;text-transform:none;direction:ltr;block-progression:tb;writing-mode:lr-tb;text-anchor:start;baseline-shift:baseline;color:#000000;fill:#000000;fill-opacity:0.32156863;fill-rule:nonzero;stroke:none;stroke-width:1;marker:none;visibility:visible;display:inline;overflow:visible;enable-background:accumulate;font-family:Sans;-inkscape-font-specification:Sans"
     d="m 4,4.0000001 c -0.4916,0 -1,0.4731186 -1,1 l 0,1 c -0.686803,0 -0.883535,0 -1.5,0 -0.979161,0 -1.5,0.4829856 -1.5,1.5 L 0,26.5 C 0,27.503839 0.500972,28 1.5,28 l 28.84375,0 C 31.21572,28 32,27.376781 32,26.5 L 32,9.5517768 C 32,8.5377941 31.580916,8.0000001 30.5,8.0000001 l -2.5,0 0,-3 c 0,-0.5268814 -0.5084,-1 -1,-1 z m 15,3 0,2 12,0 L 31,27 1,27 1,7.0000001 z"
     id="path3784"
     inkscape:connector-curvature="0"
     sodipodi:nodetypes="ssccssssscccsssccccccc" />
  <path
     style="opacity:1;fill:#000000;fill-opacity:0.32156863000000002"
     d="M 16 11.25 C 15.75 11.25 15.5 11.5 15 12 L 11 16 C 8.7966102 18 8 18 11 18 L 11 23 C 11 24.108 11.892 25 13 25 L 14.5 25 L 14.5 20 L 17.5 20 L 17.5 25 L 19 25 C 20.108 25 21 24.108 21 23 L 21 18 C 24 18 23.288136 18 21 16 L 21 13 C 21 12.446 21 12 20 12 C 19 12 19 12.446 19 13 L 19 14 L 17 12 C 16.5 11.5 16.25 11.25 16 11.25 z "
     id="rect2989" />
</svg>

<svg xmlns="http://www.w3.org/2000/svg" viewBox="0 0 32 32">
 <path d="m 4 4 c -0.492 0 -1 0.473 -1 1 l 0 1 c -0.667 0 -0.833 0 -1.5 0 -0.979 0 -1.5 0.494 -1.5 1.5 l 0 19 c 0 1.031 0.523 1.5 1.5 1.5 l 28.844 0 c 0.872 0 1.656 -0.623 1.656 -1.5 l 0 -17 c 0 -0.941 -0.425 -1.5 -1.5 -1.5 l -2.5 0 0 -3 c 0 -0.527 -0.508 -1 -1 -1 z" style="visibility:visible;fill:#f06292;fill-opacity:1;stroke:none;display:inline;color:#000;fill-rule:nonzero"/>
 <path d="m 4 4 c -0.492 0 -1 0.473 -1 1 l 0 1 c -0.687 0 -0.884 0 -1.5 0 -0.979 0 -1.5 0.483 -1.5 1.5 l 0 19 c 0 1 0.501 1.5 1.5 1.5 l 28.844 0 c 0.872 0 1.656 -0.623 1.656 -1.5 l 0 -16.948 c 0 -1.014 -0.419 -1.552 -1.5 -1.552 l -2.5 0 0 -3 c 0 -0.527 -0.508 -1 -1 -1 z m 15 3 0 2 12 0 l 0 18 -30 0 0 -20 z" style="visibility:visible;fill:#000;fill-opacity:0.322;stroke:none;display:inline;color:#000;fill-rule:nonzero"/>
 <path d="m 16 11.25 c -0.25 0 -0.5 0.25 -1 0.75 l -4 4 c -2.203 2 -3 2 0 2 l 0 5 c 0 1.108 0.892 2 2 2 l 1.5 0 l 0 -5 l 3 0 l 0 5 l 1.5 0 c 1.108 0 2 -0.892 2 -2 l 0 -5 c 3 0 2.288 0 0 -2 l 0 -3 c 0 -0.554 0 -1 -1 -1 c -1 0 -1 0.446 -1 1 l 0 1 l -2 -2 c -0.5 -0.5 -0.75 -0.75 -1 -0.75 z" style="fill:#000;opacity:1;fill-opacity:0.322"/>
</svg>
